!!!OTL: 198. Sher
!!!Genre:	Sher
!!!Mode:	Minor
!!!Listening/dance:	dance
!!!One_Mode:	yes
**kern
*I"P1
*clefG2
*k[b-e-]
*g:
*M2/4
*>A
=1
(8qdd/
8cc)
4b-
(16aLL
16b-JJ)
=2
8cc
4g
8g
=3
16gLL
16a
16b-
16ccJJ
16ddLL
16ee-
16dd
16ccJJ
=4
(8qee-/
4dd)
16ccLL
16b-
16a
16gJJ
=5
8cc
4b-
16aLL
16b-JJ
=6
8cc
4g
8g
=7
16gLL
16a
16b-
16ccJJ
16ddLL
16ee-
16dd
16ccJJ
=8
16b-LL
16cc
16a
16b-JJ
8g
8r
=9:|!|:
*>B
8r
8ffL
8ee-
8ddJ
=10
8ccL
8ccJ
8cc
8r
=11
8r
8fL
8b-
8ddJ
=12
(8qgg/
8ffL)
8ccJ
(8qgg/
8ffL)
8ccJ
=13
8ccL
16ddL
16ccJJ
8b-L
8aJ
=14
2g
=15:|!|:
*>C
2dd
=16
(8qee-/
2dd)
=17
(8qee-/
4dd)
(8qee-/
4dd)
=18
(8qee-/
4dd)
(8qee-/
4dd)
=19
16ddLL
16ee-
16dd
16ccJJ
8b-L
8ccJ
=20
8ddL
8b-
8f
8b-J
=21
16ddLL
16ee-
16dd
16ccJJ
8b-L
8ccJ
=22
8ddL
8b-
8f
8b-J
=23
16ddLL
16ee-
16dd
16ccJJ
8b-L
8ddJ
=24
(8ffL
8ccJ)
(8ffL
8ccJ)
=25
8ccL
16ddL
16ccJJ
8b-L
8aJ
=26
2g
=:|!
*-
